X:1
T: Lord Binning
C:Donald Dow
R:Reel
Q: 232
K:Em
M:4/4
L:1/8
|:B|E2 GA B2 Ee|dB Ad FD AF|GE GB DF Ad|Bd FA BE EB|
E2 GA B2 Ee|dB Ad FD AF|GE GB DF Ad|Bd FA BE EB|
eB ge ^df Bg|fd BG FA Df|eB ge dB e^c|dA FA BE EB|
eB ge ^df B^c|dB AG FA DF|GB Ee ^df BA|GB AF GE E:|
